Catalina-light/actions/16/media-random-tracks-amarok.svg

<svg xmlns="http://www.w3.org/2000/svg" width="16" height="16" viewBox="0 0 16 16">
 <defs>
  <style id="current-color-scheme" type="text/css">
   .ColorScheme-Text { color:#5c616c; } .ColorScheme-Highlight { color:#5294e2; }
  </style>
 </defs>
 <path style="fill:currentColor" class="ColorScheme-Text" d="M 11 1 L 11 3 L 9.3828125 3 L 5.3828125 11 L 1 11 L 1 13 L 6.6191406 13 L 10.619141 5 L 11 5 L 11 7 L 15 4 L 11 1 z M 1 3 L 1 5 L 5.3828125 5 L 6.3242188 6.8828125 L 7.4414062 4.6464844 L 6.6191406 3 L 1 3 z M 2 6 L 2 7 L 3 7 L 3 10 L 4 10 L 4 7 L 5 7 L 5 6 L 2 6 z M 11 9 L 11 11 L 10.619141 11 L 9.6777344 9.1171875 L 8.5585938 11.353516 L 9.3828125 13 L 11 13 L 11 15 L 15 12 L 11 9 z"/>
</svg>

<svg width="16" height="16" viewBox="0 0 16 16" xmlns="http://www.w3.org/2000/svg">
<defs>
<style id="current-color-scheme" type="text/css">.ColorScheme-Text { color:#5c616c; } .ColorScheme-Highlight { color:#5294e2; }</style>
</defs>
<path class="ColorScheme-Text" d="m11 1v2h-1.6172l-4 8h-4.3828v2h5.6191l4-8h0.38086v2l4-3-4-3zm-10 2v2h4.3828l0.94141 1.8828 1.1172-2.2363-0.82227-1.6465h-5.6191zm1 3v1h1v3h1v-3h1v-1h-3zm9 3v2h-0.38086l-0.94141-1.8828-1.1191 2.2363 0.82422 1.6465h1.6172v2l4-3-4-3z" fill="#363636"/>
</svg>
